X: 20762
T: I WAS, D'YE SEE, A WATERMAN.
Q: "Lively."
%R: air, march
B: W. Hamilton "Universal Tune-Book" Vol. 2 Glasgow 1846 p.76 #2
S: http://s3-eu-west-1.amazonaws.com/itma.dl.printmaterial/book_pdfs/hamiltonvol2web.pdf
Z: 2016 John Chambers <jc:trillian.mit.edu>
M: C
L: 1/8
K: G
% - - - - - - - - - - - - - - - - - - - - - - - - -
D2 |\
G3A B3c | d3B G2G2 | F2G2 A2B2 | B2A2 z2D2 |\
G3A B3c | d2e2 c2d2 | B2(cB) A2G2 | F2G2 z2G2 |\
G2(AB) c3c | c3d e2(dc) |
B3c d2B2 | A4 z2A2 |\
A2d2 F2A2 | G2B2E2A2 | F3G E3D | D4 z2D2 |\
(FEFG) A2d2 | (BA)(Bc) d2(dc) | B2d2 g2B2 | c4 Hz2(e>d) |\
d2d2 d2(B>A) |
G2G2 G2(ge) | d2d2 d2(B>A) | G2G2 HG2 (GF) |\
E2(FG) A2F2 | B4 z2(AB) | G2(AB) c2A2 | d4 z2e2 |\
(ed)(ed) ce3 | d2B2 Hg2(dc) | B2(Bc) A3B | G6 |]
% - - - - - - - - - - - - - - - - - - - - - - - - -

%%sep 1 1 500
%%sep 1 1 500

